X:1
T: Anna is my Darling
C:
R:Reel
I:speed 232
Q:232
K:A
M:4/4
L:1/8
|:c|A2AE CE AB|cd Bc AF FG|A1/2A1/2A AE CE AB|cA ec B2 Ac|
A2AE CE AB|cd Bc AF FG|A1/2A1/2A AE CE AB|cA ec B2 Ad|
cee2 cff2|ec BA BF Fd|ce e2 ce fg|ag fe fe fg|
ag fe fg af|ec dB cA FA|GA EA CE A,e|cA ec B2A:|
